images/cvo.svg

<svg width="102" height="44" viewBox="0 0 102 44" fill="none" xmlns="http://www.w3.org/2000/svg">
<path d="M10.6783 21.1438L14.2625 24.728C13.9966 25.6853 13.8052 26.6637 13.7095 27.6529L8.93402 22.8774L10.6783 21.1438Z" fill="#395EF7"/>
<path d="M10.6783 22.8775C8.24268 25.3131 4.27556 25.3131 1.82934 22.8775C-0.60624 20.4419 -0.60624 16.4748 1.82934 14.0392C3.13754 12.731 4.93497 12.0716 6.77495 12.2311C7.45564 12.2843 7.95552 12.8799 7.89171 13.5606C7.83853 14.2413 7.24293 14.7411 6.56224 14.688C5.44549 14.5922 4.36064 14.9964 3.56296 15.7834C2.0846 17.2618 2.0846 19.6655 3.56296 21.1438C5.04133 22.6222 7.45564 22.6222 8.93401 21.1438C9.41261 20.6652 10.189 20.6652 10.6783 21.1438C11.1569 21.6225 11.1569 22.3989 10.6783 22.8775Z" fill="#395EF7"/>
<path d="M7.55137 14.3263C7.55137 14.3263 7.45565 14.422 7.39184 14.4539C6.83878 14.8474 6.07301 14.7198 5.67948 14.1667C3.90332 11.6673 4.17985 8.28518 6.36017 6.1155C8.43414 4.04153 11.6142 3.67992 14.103 5.23273C14.6773 5.59435 14.8475 6.34948 14.4859 6.92381C14.1243 7.49814 13.3691 7.66831 12.7948 7.31733C11.2845 6.37075 9.35945 6.5941 8.10443 7.84912C6.7856 9.16795 6.61543 11.2206 7.68964 12.7309C8.04062 13.2308 7.9768 13.9008 7.56201 14.3156" fill="#37B5FE"/>
<path d="M26.483 12.5395C25.6002 12.7628 24.7493 13.0713 23.9198 13.4541L21.1438 10.6782L22.8775 8.93396L26.483 12.5395Z" fill="#FFCB24"/>
<path d="M22.8775 10.6677C22.3988 11.1463 21.6224 11.1463 21.1332 10.6677C20.6546 10.1891 20.6546 9.41264 21.1332 8.93404C22.6116 7.45567 22.6116 5.052 21.1332 3.56299C19.6548 2.08463 17.2512 2.08463 15.7622 3.56299C15.0496 4.27559 14.656 5.2328 14.656 6.2432C14.656 6.57291 14.5497 6.90261 14.2944 7.14723C13.8158 7.62584 13.0394 7.62584 12.5608 7.14723C12.3268 6.91325 12.1992 6.60481 12.1992 6.28574C12.1992 4.6053 12.8373 3.02057 14.0285 1.82937C16.4641 -0.60621 20.4312 -0.60621 22.8775 1.82937C25.313 4.26495 25.313 8.23208 22.8775 10.6783" fill="#FFCB24"/>
<path d="M15.1772 20.1441L10.9867 15.9536C10.3167 15.2836 10.6251 14.1349 11.5398 13.8903L17.2405 12.38C18.1552 12.1354 18.9848 12.9756 18.7401 13.8796L17.2299 19.5804C16.9853 20.4951 15.8472 20.8035 15.1665 20.1334" fill="black"/>
<path d="M87.6916 44C79.8743 44 73.5142 37.6398 73.5142 29.8226C73.5142 22.0053 79.8743 15.6451 87.6916 15.6451C95.5088 15.6451 101.869 22.0053 101.869 29.8226C101.869 37.6398 95.5088 44 87.6916 44ZM87.6916 26.5042C85.8622 26.5042 84.3732 27.9932 84.3732 29.8226C84.3732 31.6519 85.8622 33.1409 87.6916 33.1409C89.5209 33.1409 91.0099 31.6519 91.0099 29.8226C91.0099 27.9932 89.5209 26.5042 87.6916 26.5042Z" fill="#37B5FE"/>
<g opacity="0.8">
<path d="M59.1346 43.7979C58.4327 43.7979 57.7201 43.6597 57.0288 43.3725C54.2635 42.2026 52.9659 39.0225 54.1359 36.2572L61.5596 18.6764C62.7295 15.9111 65.9096 14.6135 68.6749 15.7834C71.4402 16.9534 72.7377 20.1335 71.5678 22.8987L64.1441 40.4796C63.2719 42.5536 61.2618 43.7979 59.1453 43.7979" fill="#395EF7"/>
</g>
<path d="M59.1453 43.7979C57.0607 43.7979 55.0718 42.5961 54.1784 40.5647L46.4037 22.9838C45.1912 20.2398 46.425 17.0384 49.169 15.8153C51.913 14.6029 55.1143 15.8366 56.3268 18.5806L64.1015 36.1615C65.314 38.9055 64.0803 42.1069 61.3362 43.33C60.6236 43.6384 59.8791 43.7979 59.1453 43.7979Z" fill="#395EF7"/>
<path d="M45.5528 29.5566C45.5315 33.3642 44.0319 36.9485 41.3411 39.6393C38.5332 42.4365 34.8533 43.8404 31.1733 43.8404C27.4934 43.8404 23.8028 42.4365 21.0056 39.6393C18.5487 37.1824 17.1661 34.0343 16.8683 30.8116C16.7619 29.6843 16.7832 28.5356 16.9533 27.4188C17.3788 24.4408 18.7295 21.5798 21.0056 19.3038C22.5477 17.7616 24.3665 16.613 26.366 15.911C27.27 15.5919 28.2166 15.3579 29.1738 15.2303C29.8119 15.1452 30.4607 15.092 31.1095 15.092H31.1201C33.9173 15.092 36.1934 17.3575 36.1934 20.1546C36.204 22.9625 33.9386 25.2385 31.1414 25.2492C30.0247 25.2492 28.9717 25.6852 28.174 26.4723C26.5255 28.1208 26.5255 30.8116 28.174 32.4602C29.0036 33.2898 30.0885 33.6939 31.1733 33.6939C32.2582 33.6939 33.343 33.2791 34.162 32.4602C34.9596 31.6731 35.3957 30.6202 35.4063 29.4928C35.417 26.7063 37.6824 24.4515 40.4796 24.4515H40.5008C43.3087 24.4621 45.5635 26.7488 45.5528 29.5566Z" fill="#FFCB24"/>
<path d="M32.2156 19.0805C32.2156 20.3887 31.152 21.4523 29.8438 21.4523C28.5356 21.4523 27.4721 20.3887 27.4721 19.0805C27.4721 17.7723 28.5356 16.7087 29.8438 16.7087C31.152 16.7087 32.2156 17.7723 32.2156 19.0805Z" fill="white"/>
<path d="M31.9816 19.0804C31.9816 19.7611 31.4286 20.3248 30.7372 20.3248C30.0459 20.3248 29.4929 19.7718 29.4929 19.0804C29.4929 18.3891 30.0459 17.8361 30.7372 17.8361C31.4286 17.8361 31.9816 18.3891 31.9816 19.0804Z" fill="black"/>
</svg>

<svg width="102" height="44" fill="none" xmlns="http://www.w3.org/2000/svg"><path d="M10.678 21.144l3.584 3.584a17.09 17.09 0 00-.553 2.925l-4.775-4.776 1.744-1.733z" fill="#395EF7"/><path d="M10.678 22.878c-2.435 2.435-6.402 2.435-8.849 0a6.259 6.259 0 010-8.839 6.214 6.214 0 014.946-1.808c.68.053 1.18.649 1.117 1.33a1.23 1.23 0 01-1.33 1.127 3.797 3.797 0 00-2.999 1.095 3.794 3.794 0 000 5.36 3.807 3.807 0 005.371 0 1.239 1.239 0 011.744 0 1.226 1.226 0 010 1.735z" fill="#395EF7"/><path d="M7.551 14.326s-.095.096-.16.128a1.227 1.227 0 01-1.712-.287 6.226 6.226 0 01.681-8.052 6.23 6.23 0 017.743-.882c.574.361.745 1.116.383 1.69a1.236 1.236 0 01-1.691.394 3.767 3.767 0 00-4.69.532 3.783 3.783 0 00-.415 4.882c.35.5.287 1.17-.128 1.585" fill="#37B5FE"/><path d="M26.483 12.54a14.65 14.65 0 00-2.563.914l-2.776-2.776 1.734-1.744 3.605 3.606z" fill="#FFCB24"/><path d="M22.878 10.668a1.239 1.239 0 01-1.745 0 1.226 1.226 0 010-1.734 3.807 3.807 0 000-5.371 3.807 3.807 0 00-5.37 0 3.773 3.773 0 00-1.107 2.68c0 .33-.106.66-.362.904a1.226 1.226 0 01-1.733 0 1.217 1.217 0 01-.362-.861 6.25 6.25 0 011.83-4.457c2.435-2.435 6.402-2.435 8.849 0 2.435 2.436 2.435 6.403 0 8.85" fill="#FFCB24"/><path d="M15.177 20.144l-4.19-4.19a1.235 1.235 0 01.553-2.064l5.7-1.51a1.225 1.225 0 011.5 1.5l-1.51 5.7a1.234 1.234 0 01-2.064.553" fill="#000"/><path d="M87.692 44c-7.818 0-14.178-6.36-14.178-14.177 0-7.818 6.36-14.178 14.178-14.178 7.817 0 14.177 6.36 14.177 14.178 0 7.817-6.36 14.177-14.177 14.177zm0-17.496a3.323 3.323 0 00-3.319 3.319 3.323 3.323 0 003.319 3.318 3.323 3.323 0 003.318-3.318 3.323 3.323 0 00-3.318-3.319z" fill="#37B5FE"/><path d="M59.135 43.798a5.427 5.427 0 01-4.999-7.54l7.424-17.582a5.427 5.427 0 017.115-2.893 5.427 5.427 0 012.893 7.116l-7.424 17.58a5.419 5.419 0 01-4.999 3.319" fill="#395EF7" opacity=".8"/><path d="M59.145 43.798a5.417 5.417 0 01-4.967-3.233l-7.774-17.581a5.437 5.437 0 012.765-7.169 5.422 5.422 0 017.158 2.766l7.775 17.58a5.437 5.437 0 01-2.766 7.169 5.523 5.523 0 01-2.19.468z" fill="#395EF7"/><path d="M45.553 29.557a14.297 14.297 0 01-4.212 10.082 14.368 14.368 0 01-10.168 4.201 14.35 14.35 0 01-10.167-4.2 14.32 14.32 0 01-4.138-8.828 13.929 13.929 0 01.085-3.393 14.292 14.292 0 014.053-8.115 14.232 14.232 0 018.168-4.074 14.673 14.673 0 011.936-.138h.01a5.07 5.07 0 015.073 5.063 5.073 5.073 0 01-5.052 5.094c-1.116 0-2.17.436-2.967 1.223a4.243 4.243 0 000 5.988 4.217 4.217 0 003 1.234 4.22 4.22 0 002.988-1.234 4.186 4.186 0 001.244-2.967 5.066 5.066 0 015.074-5.041h.02a5.075 5.075 0 015.053 5.105z" fill="#FFCB24"/><path d="M32.216 19.08a2.374 2.374 0 01-2.372 2.372 2.374 2.374 0 01-2.372-2.372 2.374 2.374 0 012.372-2.371 2.374 2.374 0 012.372 2.372z" fill="#fff"/><path d="M31.982 19.08c0 .681-.553 1.245-1.245 1.245a1.24 1.24 0 01-1.244-1.245 1.24 1.24 0 011.244-1.244 1.24 1.24 0 011.245 1.244z" fill="#000"/></svg>
